X:297
T: DURCH FELD UND WALD
N: F0519
O: Europa, Mitteleuropa, Deutschland
R: Studenten - Lied
M: 2/4
L: 1/16
K: F
C2 | C2A,2B,2D2 | C2F2F2
C2 | C2A,2B,2D2 | C2F2F2
A,2 | G,2C2EDC=B, | C4z2
C2 | B,2A,2G,2B,2 | A,2C2A,2
C2 | B,2A,2G,2B,2 | A,2C2A,2
C2 | D2D2E2E2 | F8 | z6

